imgs/icons/arrow.svg

<svg width="102" height="99" viewBox="0 0 102 99" fill="none" xmlns="http://www.w3.org/2000/svg">
<path d="M79.3178 42.9913L47.6543 11.3278C46.3619 10.0355 45.7427 8.52768 45.7965 6.80449C45.8504 5.08131 46.5235 3.57353 47.8159 2.28114C49.1083 1.09646 50.616 0.477189 52.3392 0.42334C54.0624 0.36949 55.5702 0.988759 56.8626 2.28114L99.5113 44.9299C100.157 45.5761 100.615 46.2761 100.884 47.03C101.154 47.7839 101.288 48.5916 101.288 49.4532C101.288 50.3148 101.154 51.1226 100.884 51.8765C100.615 52.6303 100.157 53.3304 99.5113 53.9766L56.8626 96.6253C55.6779 97.81 54.197 98.4023 52.42 98.4023C50.643 98.4023 49.1083 97.81 47.8159 96.6253C46.5235 95.3329 45.8773 93.7982 45.8773 92.0212C45.8773 90.2442 46.5235 88.7094 47.8159 87.4171L79.3178 55.9152L7.10572 55.9152C5.27484 55.9152 3.74013 55.2959 2.50159 54.0573C1.26306 52.8188 0.643789 51.2841 0.643789 49.4532C0.643789 47.6223 1.26306 46.0876 2.50159 44.8491C3.74013 43.6106 5.27484 42.9913 7.10572 42.9913L79.3178 42.9913Z" fill="black"/>
</svg>

<svg xmlns="http://www.w3.org/2000/svg" width="102" height="99" fill="none"><path fill="#000" d="M79.32 43 47.65 11.32A5.92 5.92 0 0 1 45.8 6.8a6.5 6.5 0 0 1 2.02-4.52A6.82 6.82 0 0 1 52.34.42a5.92 5.92 0 0 1 4.52 1.86l42.65 42.65c.65.65 1.1 1.35 1.37 2.1s.4 1.56.4 2.42c0 .86-.13 1.67-.4 2.43a5.67 5.67 0 0 1-1.37 2.1L56.86 96.63a6.03 6.03 0 0 1-4.44 1.77c-1.78 0-3.31-.59-4.6-1.77a6.29 6.29 0 0 1-1.94-4.6c0-1.79.64-3.32 1.94-4.61l31.5-31.5H7.1a6.25 6.25 0 0 1-4.6-1.86 6.25 6.25 0 0 1-1.87-4.6c0-1.84.62-3.37 1.86-4.61a6.25 6.25 0 0 1 4.6-1.86h72.22Z"/></svg>
